X: 3
T: Coen's Memories
R: reel
M: 4/4
L: 1/8
K: Ador
AGED EABd | ea a/a/a gedB | G3 B AE E2 | DEGB AGED |
EAGB ABcd | ea a/a/a gedB | G2 {G/B/}d2 e2 dB | GABG ABAG |
EA A/A/A ABcd | eaaf gedB | G3 B AE E2 | DEGB AGED |
EAGB ABcd | eaaf gedB | G2 {G/B/}d2 e2 dB | GABG ABcd ||
Ea a/a/a bage | a3 a gedB | d3 e g2 gb | a3 e g2 ed |
ea a/a/a bage | a2{ga} ba gedB | GABd egdB | GABG ABcd |
ea a/a/a bage | ~a2 ba gedB | ~d2 de g2 gb | a3 e ~g2 ed |
ea a/a/a bage | a2 ba gedB | G2 {G/B/}d2 egdB | GABG A2 AG |]


Tune 558	Setting 13525

